X:65
T:Hally Wood's Fancy
R:double jig
C: 1990, 2010 L.E. McCullough 
M:6/8
L:1/8
K:D
|:DFA dAF|GBd gdB|DFA dAF|GFG ~E3|
DFA dAF|GBd ~g3|fef gfe|edc d3:|
|:fef def|gfg bag|fef def|ecA ~A3|
fef def|gfg bag|fef gfe|edc d3:|
|:fAA def|gAA efg|aAA gAA|fga gfe|
fAA def|gAA bag|fef gfe|edc d3:|
|:fef AGA|ede AGA|DFA dAF|GBd gfe|
fef AGA|ede efg|fef gfe|edc d3:|
<end>
<start>
